X: 1625
T: Rûy-i Dilârâ Sazsemâîsi
C: Hasib Dede (Erzurumlu)
O: Turkey
F: http://compmusic.upf.edu/node/140
N: ruyidilara--sazsemaisi--aksaksemai----erzurumlu_hasib_dede
N: makam= ruyidilara
N: form= sazsemaisi
N: usul= aksaksemai = 10/8
M: 10/8
L: 1/16
K: C _1/4B   
Q: 1/4=132
%%MIDI tuningsystem comma53
gfga g2a2 g2f2 e2d4z2  | efed fgf2 e2ag fga4z2  | 
w:  1. HANE  |   | 
g3_b a2g2 f2ef efg4z2  | c4 d2c2 _B2A2 G2F4G2  | \
w:   |   | 
AGFG A2F2 G2AB ABc2 d2c2  | 
w:   | 
e2d2 cBA3cBA G2A4z2  | A3f e2f2 g2fg fga4_b2  | 
w:   |  MÜLÂZİME  | 
a_bag f2e2 d2e2 c2d4e2  | defg f2e2 d2e2 ded2 c2B2  | 
w:   |   | 
A2c2 B2A2 G2^FD EFG4z2  | f4 g2f2 e2f/e/f/g/ fed4z2  | 
w:   |  2. HANE  | 
agag a2g2 a2ga gag2 f2e2  | fefg f2e2 d2e2 f2g4z2  | 
w:   |   | 
g4 efg4d2 efg4z2  | f2g2 f2e2 ded2 cBc4B2  | \
w:   |   | 
c4 Bcd3fed cBA4z2  | 
w:   | 
A3f e2f2 g2fg fga4_b2  | a_bag f2e2 d2e2 c2d4e2  | 
w:  MÜLÂZİME  |   | 
defg f2e2 d2e2 ded2 c2B2  | A2c2 B2A2 G2^FD EFG4z2  | 
w:   |   | 
a3_b a2g2 f2ef gag2 a2z2  | f2g2 a2_b2 a2g2 f2e4z2  | 
w:  3. HANE  |   | 
f3g a2_b2 c'2ab abc'4z2  | c'4 c'_bc'4d'2 c'ba4z2  | \
w:   |   | 
_babc' b2a2 b2c'2 bag4z2  | 
w:   | 
_b2a2 g2f2 efed cBA4z2  | A3f e2f2 g2fg fga4_b2  | 
w:   |  MÜLÂZİME  | 
a_bag f2e2 d2e2 c2d4e2  | defg f2e2 d2e2 ded2 c2B2  | 
w:   |   | 
A2c2 B2A2 G2^FD EFG4z2  | z12  | g4a2g2a2g2  | \
w:   |  |   | 
f4g2a4z2  | 
w:  4. HANE  | 
e2f2g2a2g2f2  | e4c2d4z2  | B4c2d4e2  | \
w:   |   |   | 
f4e2f4z2  | f2e2f2a2g2f2  | 
w:   |   | 
e2d2e2g2f2e2  | d2c2d2e2d2c2  | B2A2G2A4z2  | z20  | \
w:   |   |   |  | 
A3f e2f2 g2fg fga4_b2  | 
w:  MÜLÂZİME  | 
a_bag f2e2 d2e2 c2d4e2  | defg f2e2 d2e2 ded2 c2B2  | 
w:   |   | 
A2c2 B2A2 G2^FD EFG4z2  | |


